!!!!SEGMENT: The2002-Clare_sanctorum.krn
!!!id: The2002
!!!AGN: Motet
!!!SCT: Sherr (1991)
!!!voices: 4
!!!COM: Pierrequin de Therache
!!!OTL: Clare sanctorum
**kern	**kern	**kern	**kern
*part4	*part3	*part2	*part1
*staff4	*staff3	*staff2	*staff1
*I"Bassus	*I"Tenor	*I"Altus	*I"Superius
*I'B	*I'T	*I'A	*I'S
*clefF4	*clefGv2	*clefGv2	*clefG2
*k[]	*k[]	*k[]	*k[]
*C:	*C:	*C:	*C:
*M2/1	*M2/1	*M2/1	*M2/1
*met(C|)	*met(C|)	*met(C|)	*met(C|)
!!section: Prima pars: Clare sanctorum
!!!OMD: Prima pars: Clare sanctorum
=1	=1	=1	=1
0F	0F	0r	0r
=2	=2	=2	=2
1E	1G	0r	0r
1F	1A	.	.
=3	=3	=3	=3
2.D	1.A	0r	0r
4E	.	.	.
2F	.	.	.
[2G	2G	.	.
=4	=4	=4	=4
2G]	1A	1r	0r
2F#i	.	.	.
1G	1G	2r	.
.	.	2d	.
=5	=5	=5	=5
0r	0r	1f	2r
.	.	.	2a
.	.	1f	1cc
=6	=6	=6	=6
0r	0r	1f	1cc
.	.	1e	1cc
=7	=7	=7	=7
0r	0r	1d	1b
.	.	1f	1a
=8	=8	=8	=8
0r	2r	1c	1cc
.	2c	.	.
.	1d	1r	1a
=9	=9	=9	=9
1F	1c	0r	0r
1G	2.B	.	.
.	4A	.	.
=10	=10	=10	=10
1F	1c	0r	0r
2.E	1G	.	.
4D	.	.	.
=11	=11	=11	=11
1F	0r	1f	0r
1C	.	1g	.
=12	=12	=12	=12
0r	0r	2.f	1cc
.	.	4e	.
.	.	4d	1dd
.	.	4c	.
.	.	2d	.
=13	=13	=13	=13
1r	0r	2A	1cc
.	.	2.c	.
2r	.	.	2a
.	.	4B	.
2GG	.	[2d	[2b
=14	=14	=14	=14
1BB	0r	4d]	4b]
.	.	4c	4a
.	.	2B	1g
1D	.	1A	.
.	.	.	2f#i
=15	=15	=15	=15
1E	2r	1G	1g
.	2G	.	.
1BB	1B	1r	1r
=16	=16	=16	=16
2GG	1d	0r	0r
2BB	.	.	.
1AA	1e	.	.
=17	=17	=17	=17
2GG	1B	0r	0r
2D	.	.	.
2E	2G	.	.
[2G	2B	.	.
=18	=18	=18	=18
2G]	1A	0r	0r
2F#i	.	.	.
1G	1G	.	.
=19	=19	=19	=19
1D	1r	0r	0r
1F	1A	.	.
=20	=20	=20	=20
1F	1c	0r	0r
2E	1c	.	.
[2A	.	.	.
=21	=21	=21	=21
2A]	2B	0r	0r
1G	2G	.	.
.	1A	.	.
2F#i	.	.	.
=22	=22	=22	=22
[0G	1G	1r	0r
.	1r	1G	.
=23	=23	=23	=23
0G]	1r	1B	1g
.	1G	1d	1b
=24	=24	=24	=24
1r	1B	1G	1dd
2r	1d	2F	2a
2G	.	[2G	[2b
=25	=25	=25	=25
2.E	1e	2G]	2b]
.	.	2.G	1g
8DL	.	.	.
8CJ	.	.	.
2.G	1B	.	.
.	.	4A	.
.	.	[2B	2d
4F	.	.	.
=26	=26	=26	=26
4E	1G	2B]	2e
4D	.	.	.
2E	.	4A	1g
.	.	4G	.
1D	1A	1d	.
.	.	.	2f#i
=27	=27	=27	=27
1GG	1G	2r	1g
.	.	2d	.
2r	1r	1f	1r
2D	.	.	.
=28	=28	=28	=28
1F	2r	1f	1r
.	2A	.	.
1F	1c	1r	2r
.	.	.	2a
=29	=29	=29	=29
0r	1c	1r	1cc
.	1r	2c	1cc
.	.	[2e	.
=30	=30	=30	=30
0r	0r	4e]	2b
.	.	4d	.
.	.	1g	2g
.	.	.	1a
.	.	2f#i	.
=31	=31	=31	=31
0r	2r	1g	1g
.	2G	.	.
.	2A	2.e	1r
.	2c	.	.
.	.	8dL	.
.	.	8cJ	.
=32	=32	=32	=32
2r	2c	1d	0r
2GG	2B	.	.
2AA	1c	2r	.
2C	.	4c	.
.	.	4d	.
=33	=33	=33	=33
2C	2A	4e	1r
.	.	4c	.
2BB	2r	2d	.
1C	1r	2G	2r
.	.	2e	2g
=34	=34	=34	=34
1AA	0r	4c	2a
.	.	4d	.
.	.	4e	2cc
.	.	4c	.
1r	.	2d	2cc
.	.	2G	2b
=35	=35	=35	=35
1r	0r	2A	1cc
.	.	2F	.
2r	.	1f	1a
2F	.	.	.
=36	=36	=36	=36
1A	2r	1e	1r
.	2c	.	.
1G	1e	1r	2r
.	.	.	2g
=37	=37	=37	=37
1G	1d	0r	1b
2F	1d	.	2a
4G	.	.	[2b
4F	.	.	.
=38	=38	=38	=38
4G	1B	0r	4b]
4F	.	.	8aL
.	.	.	8gJ
2G	.	.	2g
2F	1d	.	1r
[2G	.	.	.
=39	=39	=39	=39
2G]	1B	0r	0r
1E	.	.	.
.	1c	.	.
[2F	.	.	.
=40	=40	=40	=40
2F]	1.A	2r	0r
2D	.	2d	.
2C	.	2e	.
2E	2G	[2e	.
=41	=41	=41	=41
0E	2B	2e]	1r
.	1B	1g	.
.	.	.	2r
.	2r	4f	2g
.	.	4e	.
=42	=42	=42	=42
0r	0r	4f	2a
.	.	4e	.
.	.	4d	2cc
.	.	4c	.
.	.	1d	2cc
.	.	.	2b
=43	=43	=43	=43
2r	0r	1c	1cc
2C	.	.	.
2D	.	1r	1a
2F	.	.	.
=44	=44	=44	=44
2F	2r	0r	0r
2E	2G	.	.
1F	2A	.	.
.	2c	.	.
=45	=45	=45	=45
1D	2c	2r	0r
.	2B	2F	.
1r	1c	1A	.
=46	=46	=46	=46
2r	1A	2F	0r
2F	.	1c	.
1A	2r	.	.
.	2c	4B	.
.	.	4A	.
=47	=47	=47	=47
1G	1e	1B	2r
.	.	.	2g
1G	1d	1r	1b
=48	=48	=48	=48
2F	1d	0r	2a
4G	.	.	2.b
4F	.	.	.
4G	1B	.	.
4F	.	.	8aL
.	.	.	8gJ
2G	.	.	2g
=49	=49	=49	=49
2F	1d	0r	0r
1G	.	.	.
.	2B	.	.
2E	[2c	.	.
=50	=50	=50	=50
1F	2c]	0r	1r
.	2A	.	.
1D	1r	.	2r
.	.	.	[2dd
=51	=51	=51	=51
0r	0r	1g	2dd]
.	.	.	2b
.	.	2e	1cc
.	.	[2f	.
=52	=52	=52	=52
0r	0r	2f]	1.a
.	.	2d	.
.	.	2c	.
.	.	2e	2g
=53	=53	=53	=53
1r	0r	2e	2b
.	.	2.g	1b
2r	.	.	.
.	.	4f	.
2G	.	4e	2r
.	.	4d	.
=54	=54	=54	=54
2A	2r	2c	1r
2F	2A	1d	.
1E	1e	.	2r
.	.	2c#i	2g
=55	=55	=55	=55
1D	1f	1d	2b
.	.	.	2a
1r	1e	1A	4cc
.	.	.	4b
.	.	.	4a
.	.	.	4g
=56	=56	=56	=56
2r	1d	1D	1f
2A	.	.	.
2F	2r	1r	1r
2E	2e	.	.
=57	=57	=57	=57
2F	2d	0r	0r
2G	2B	.	.
2E	1c	.	.
[2A	.	.	.
=58	=58	=58	=58
2A]	1B	0r	1r
2G#i	.	.	.
2A	1A	.	2r
4r	.	.	2a
4AA	.	.	.
=59	=59	=59	=59
2E	0r	2r	2g
2C	.	2e	2e
2D	.	2d	2f
2E	.	2B	2g
=60	=60	=60	=60
2E	0r	1c	2e
4D	.	.	1a
4C	.	.	.
2D	.	1B	.
2E	.	.	2g#i
=61	=61	=61	=61
1AA	1r	4A	1a
.	.	4B	.
.	.	4c	.
.	.	4A	.
2r	1G	2B	1r
[2C	.	[2E	.
=62	=62	=62	=62
2C]	2A	2E]	0r
2D	1B	2F	.
1E	.	2G	.
.	[2c	2C	.
=63	=63	=63	=63
1F	2c]	0r	1r
.	2A	.	.
2D	1B	.	2r
[2E	.	.	[2g
=64	=64	=64	=64
2E]	0r	1c	2g]
2AA	.	.	2a
1r	.	2d	1b
.	.	[2e	.
=65	=65	=65	=65
0r	0r	2e]	1cc
.	.	1f	.
.	.	.	2a
.	.	2d	2b
=66	=66	=66	=66
2r	0r	1e	0r
2AA	.	.	.
1E	.	2r	.
.	.	[2e	.
=67	=67	=67	=67
1F	2r	2e]	1r
.	2A	1d	.
1E	1e	.	2r
.	.	2c#i	2g
=68	=68	=68	=68
1D	1f	1d	2b
.	.	.	2a
1r	1e	1A	4cc
.	.	.	4b
.	.	.	4a
.	.	.	4g
=69	=69	=69	=69
1r	1d	2D	1f
.	.	2d	.
2r	1r	2B	1r
2E	.	2G	.
=70	=70	=70	=70
2D	0r	2A	1r
2BB	.	2B	.
1C	.	2E	2r
.	.	[2A	2e
=71	=71	=71	=71
1BB	1r	2A]	2d
.	.	2G#i	2B
2AA	2r	1A	1c
[2A	2e	.	.
=72	=72	=72	=72
2A]	2d	0r	1B
2G#i	2B	.	.
1A	1c	.	2A
.	.	.	[2a
=73	=73	=73	=73
1E	1B	1e	2a]
.	.	.	2g
2r	1A	2c	4a
.	.	.	4b
2F	.	2A	4cc
.	.	.	4a
=74	=74	=74	=74
2E	2r	1e	2b
2C	2G	.	2.cc
2F	2A	4c	.
.	.	4d	4b
[2E	[2B	4e	4g
.	.	4f	4a
=75	=75	=75	=75
2E]	2B]	4g	2b
.	.	4f	.
2C	1c	4e	2e
.	.	4d	.
1F	.	2c	1a
.	2A	2d	.
=76	=76	=76	=76
0E	1B	1e	0g
.	2r	1r	.
.	2G	.	.
=77	=77	=77	=77
2r	2B	0r	0r
2GG	2d	.	.
1AA	2c	.	.
.	[2A	.	.
=78	=78	=78	=78
1C	2A]	0r	1r
.	1G	.	.
2AA	.	.	2r
2AA	2F#i	.	2a
=79	=79	=79	=79
2GG	1G	0r	2b
2BB	.	.	2dd
2r	1r	.	2cc
2C	.	.	4b
.	.	.	4a
=80	=80	=80	=80
1D	0r	2r	2b
.	.	2A	1a
1BB	.	2B	.
.	.	2d	2g#i
=81	=81	=81	=81
1AA	0r	2c	1a
.	.	1A	.
1C	.	.	1r
.	.	[2G	.
=82	=82	=82	=82
1AA	1r	2G]	1cc
.	.	2F#i	.
2GG	2r	1G	2b
2BB	2G	.	2dd
=83	=83	=83	=83
0r	1A	0r	2cc
.	.	.	1a
.	1c	.	.
.	.	.	[2g
=84	=84	=84	=84
1r	2A	1c	2g]
.	2A	.	2f#i
2r	2G	2B	1g
2GG	2B	2d	.
=85	=85	=85	=85
1AA	0r	2c	0r
.	.	1A	.
1C	.	.	.
.	.	[2G	.
=86	=86	=86	=86
2AA	0r	2G]	2r
2AA	.	2F#i	2cc
2GG	.	2G	1dd
2BB	.	2D	.
=87	=87	=87	=87
0r	1r	4E	1b
.	.	4F	.
.	.	4G	.
.	.	4E	.
.	2r	2F	2a
.	2c	2A	2cc
=88	=88	=88	=88
0r	1d	2G	2b
.	.	2D	1a
.	1B	1E	.
.	.	.	2g#i
=89	=89	=89	=89
2r	2A	2F	1a
2C	2c	2E	.
1D	2B	1F	1r
.	[2A	.	.
=90	=90	=90	=90
1BB	2A]	1D	0r
.	2G#i	.	.
1AA	1A	2r	.
.	.	[2A	.
=91	=91	=91	=91
1C	0r	2A]	0r
.	.	1G	.
1AA	.	.	.
.	.	2F	.
=92	=92	=92	=92
2GG	2r	2G	0r
2BB	2G	2D	.
2AA	1A	2E	.
[2A	.	[2F	.
=93	=93	=93	=93
4A]	1c	4F]	2r
4G	.	4E	.
2E	.	2e	2g
1F	2A	2c	1a
.	2A	[2f	.
=94	=94	=94	=94
2C	1G	2f]	1cc
2C	.	1e	.
1F	1A	.	2a
.	.	2d	2a
=95	=95	=95	=95
0E	1B	1e	1g
.	1r	2r	1b
.	.	2e	.
=96	=96	=96	=96
0r	0r	1g	2r
.	.	.	2b
.	.	1g	1dd
=97	=97	=97	=97
0r	1r	2g	1dd
.	.	1g	.
.	2r	.	2dd
.	2B	[2G	[2dd
=98	=98	=98	=98
0r	1d	2G]	2dd]
.	.	4F	2dd
.	.	4E	.
.	[1d	2D	2dd
.	.	2G	4cc
.	.	.	4b
=99	=99	=99	=99
1r	2d]	1F	2a
.	2d	.	2dd
2r	1e	1E	2.g
2E	.	.	.
.	.	.	4a
=100	=100	=100	=100
1G	1d	2r	4b
.	.	.	4cc
.	.	1B	2dd
[1G	1e	.	2g
.	.	4G	[2b
.	.	4A	.
=101	=101	=101	=101
2G]	2d	4B	4b]
.	.	4c	4a
2G	2B	1d	1g
1A	1r	.	.
.	.	4c	2f#i
.	.	4d	.
=102	=102	=102	=102
1G	0r	4e	4g
.	.	4f	4a
.	.	1g	4b
.	.	.	4g
1A	.	.	1cc
.	.	2f#i	.
=103	=103	=103	=103
2G	2r	1g	1b
2E	2B	.	.
1r	1d	2r	2a
.	.	2G	2b
=104	=104	=104	=104
0r	2d	2F	2a
.	2d	2B-i	1dd
.	1e	2.A	.
.	.	.	2cc#i
.	.	4F	.
=105	=105	=105	=105
1r	1d	1f	2dd
.	.	.	2d
2r	1r	1e	1g
2E	.	.	.
=106	=106	=106	=106
1G	0r	2d	2g
.	.	2e	2g
2G	.	2d	4b
.	.	.	4cc
2G	.	[2g	4dd
.	.	.	4b
=107	=107	=107	=107
1A	0r	2g]	1cc
.	.	2f#i	.
1G	.	[1g	[1b
=108	=108	=108	=108
0r	1e	1g]	2b]
.	.	.	2g
.	2d	1r	2a
.	2B	.	2b
=109	=109	=109	=109
1A	0r	2r	1e
.	.	2c	.
2G	.	2d	1r
2E	.	2e	.
=110	=110	=110	=110
1F	1r	1A	0r
1A	1c	1r	.
=111	=111	=111	=111
1G	1e	0r	0r
2r	1d	.	.
2F	.	.	.
=112	=112	=112	=112
1A	2r	0r	0r
.	2c	.	.
2G	1e	.	.
[2G	.	.	.
=113	=113	=113	=113
2G]	2d	0r	0r
4F	1d	.	.
4E	.	.	.
1D	.	.	.
.	4c	.	.
.	4B	.	.
=114	=114	=114	=114
0r	2B	2r	1dd
.	2r	1g	.
.	1r	.	2b
.	.	2e	[2cc
=115	=115	=115	=115
1r	2r	1f	2cc]
.	1d	.	2a
1G	.	1d	1r
.	2B	.	.
=116	=116	=116	=116
2E	1c	0r	1r
1F	.	.	.
.	1A	.	2r
2D	.	.	[2dd
=117	=117	=117	=117
1G	0r	2r	2dd]
.	.	2g	2b
4A	.	2f	1cc
4G	.	.	.
4F	.	[2e	.
4E	.	.	.
=118	=118	=118	=118
1F	1A	2e]	1a
.	.	2d	.
1E	1B	1e	1g
=119	=119	=119	=119
2.E	1B	1r	1b
4F	.	.	.
2G	1r	4E	1b
.	.	4F	.
2E	.	4G	.
.	.	4E	.
=120	=120	=120	=120
2F	1d	2A	2a
1G	.	2G	1b
.	1e	4E	.
.	.	4F	.
2E	.	4G	2g
.	.	4E	.
=121	=121	=121	=121
2F	1d	2A	2a
2G	.	2G	1b
2G	1B	4d	.
.	.	4B	.
2E	.	2e	2g
=122	=122	=122	=122
2F	1r	1d	2a
2G	.	.	2b
1C	1e	1c	1cc
=123	=123	=123	=123
2r	1d	4G	1b
.	.	4A	.
2G	.	4B	.
.	.	4G	.
2F	1d	2A	2a
[2G	.	2G	[2b
=124	=124	=124	=124
2G]	1B	2d	4b]
.	.	.	4g
2G	.	4B	2b
.	.	4G	.
2F	1d	2A	2a
[2G	.	2G	[2b
=125	=125	=125	=125
2G]	1B	2d	2b]
2E	.	2e	2g
2F	1r	1d	2a
2G	.	.	2b
=126	=126	=126	=126
1C	1c	1e	4cc
.	.	.	4b
.	.	.	4a
.	.	.	4g
1D	1A	2d	1f
.	.	2D	.
=127	=127	=127	=127
[0AA	1c	[0A	1e
.	2d	.	2f
.	[2e	.	2e
=128	=128	=128	=128
0AA]	2e]	0A_	1f
.	1d	.	.
.	.	.	1e
.	2c#i	.	.
=129	=129	=129	=129
[0D	0d	0A]	1d
.	.	.	2r
.	.	.	2a
=130	=130	=130	=130
0D]	0r	1r	2b
.	.	.	2a
.	.	2r	1dd
.	.	2d	.
=131	=131	=131	=131
0r	0r	2e	2g
.	.	2d	2a
.	.	[1g	4b
.	.	.	4a
.	.	.	4g
.	.	.	4f
=132	=132	=132	=132
0r	1r	1g]	1.e
.	2r	2c	.
.	2A	2r	2f
=133	=133	=133	=133
1r	2B	0r	2g
.	2A	.	1a
2r	1d	.	.
2D	.	.	2d
=134	=134	=134	=134
2E	2G	0r	0r
2D	2A	.	.
[1G	4B	.	.
.	4A	.	.
.	4G	.	.
.	4F	.	.
=135	=135	=135	=135
1G]	1.E	0r	0r
2C	.	.	.
2AA	2F	.	.
=136	=136	=136	=136
2BB	2G	0r	1r
2AA	1A	.	.
[1D	.	.	2r
.	2D	.	2a
=137	=137	=137	=137
1D]	0r	1r	2b
.	.	.	2a
1GG	.	2r	1dd
.	.	2d	.
=138	=138	=138	=138
0r	0r	2e	2g
.	.	2d	2a
.	.	1g	4b
.	.	.	4a
.	.	.	4g
.	.	.	4f
=139	=139	=139	=139
1r	1r	1g	1e
2r	2r	1c	1r
2AA	2F	.	.
=140	=140	=140	=140
2BB	2G	0r	0r
2AA	1A	.	.
1D	.	.	.
.	[2D	.	.
=141	=141	=141	=141
4GG	2D]	0r	1r
4AA	.	.	.
4BB	1G	.	.
4GG	.	.	.
1AA	.	.	1cc
.	2F#i	.	.
=142	=142	=142	=142
1GG	1G	1d	2b
.	.	.	1dd
1GG	1G	2B	.
.	.	[2d	4cc
.	.	.	4b
=143	=143	=143	=143
0D	1F	2d]	1a
.	.	4c	.
.	.	4B	.
.	1F	1A	2r
.	.	.	2f
=144	=144	=144	=144
0C	0G	0c	2e
.	.	.	1g
.	.	.	4f
.	.	.	4e
=145	=145	=145	=145
2BB	1B	2r	2.d
1D	.	1F	.
.	.	.	4e
.	2A	.	4f
.	.	.	4d
2C	[2c	[2G	[2e
=146	=146	=146	=146
1E	2c]	1G]	4e]
.	.	.	4f
.	2B	.	4g
.	.	.	4e
2D	2d	2A	4f
.	.	.	4g
[2F	2A	2D	[2a
=147	=147	=147	=147
4F]	2c	4A	2a]
4C	.	4c	.
2E	2G	4B	1g
.	.	4G	.
1D	1A	1d	.
.	.	.	2f#i
=148	=148	=148	=148
00GGl	00Gl	00dl	00gl
==	==	==	==
*-	*-	*-	*-
!!!system-decoration: [*]
!!!RDF**kern: i = editorial accidental
!!!RDF**kern: l = terminal long
!!!ENC: Benjamin Ory
!!!END: 2023/10/29
!!!EED: Benjamin Ory
!!!EEV: 2023/10/29
!!!YEC: Copyright 2023 Benjamin Ory, All Rights Reserved
!!!ONB: Translated from MusicXML on 2023/10/29
